svgs/shareme.svg

<svg width="24" height="24" viewBox="0 0 24 24" fill="none" xmlns="http://www.w3.org/2000/svg">
<path d="M7.11475 7.01087C7.68306 7 8.24044 7.07609 8.64481 7.19565C8.98361 7.30435 9.53005 7.55435 9.85792 7.76087C10.1858 7.96739 10.6776 8.3913 10.9508 8.68478C11.224 8.98913 11.5738 9.47826 11.7158 9.77174C11.8579 10.0761 12.1639 10.8261 12.4044 11.4565C12.6339 12.087 12.8962 12.6739 12.9727 12.7609C13.0601 12.8478 13.2678 13.2174 13.4536 13.5761C13.6284 13.9348 13.9454 14.3913 14.1421 14.5978C14.3497 14.7935 14.8087 15.1196 15.1694 15.3043C15.7705 15.6087 15.9126 15.6304 16.8634 15.6304C17.6721 15.6304 18.0109 15.5761 18.3934 15.4022C18.6667 15.2826 19.082 15.0326 19.3224 14.8587C19.5628 14.6739 19.9235 14.2717 20.1202 13.9457C20.3607 13.5435 20.5246 13.0761 20.6339 12.4348C20.765 11.7065 20.776 11.4022 20.6885 11.0217C20.623 10.75 20.4481 10.337 20.306 10.0978C20.1639 9.8587 19.8579 9.47826 19.6284 9.26087C19.3989 9.04348 18.9399 8.72826 18.612 8.55435C18.0765 8.28261 17.8907 8.25 16.9727 8.25C16.3497 8.25 15.7268 8.31522 15.4208 8.41304C14.9399 8.56522 14.8962 8.56522 14.6776 8.3587C14.5574 8.23913 14.4481 8.04348 14.4481 7.92391C14.4481 7.80435 14.5355 7.63044 14.6448 7.52174C14.7541 7.42391 15.1148 7.27174 15.4426 7.17391C15.7705 7.07609 16.4153 7 16.8634 7C17.3115 7 17.9563 7.07609 18.2842 7.17391C18.612 7.27174 19.1366 7.48913 19.4317 7.65217C19.7377 7.82609 20.1967 8.17391 20.459 8.43478C20.7213 8.69565 21.082 9.11957 21.2568 9.3913C21.4317 9.66304 21.6721 10.1957 21.7924 10.587C21.9126 10.9783 22 11.6087 22 12C22 12.3913 21.9126 13.0217 21.7924 13.413C21.6721 13.8043 21.4317 14.337 21.2568 14.6087C21.082 14.8804 20.7213 15.3043 20.459 15.5652C20.1967 15.8261 19.7377 16.1739 19.4317 16.3478C19.1366 16.5109 18.612 16.7283 18.2842 16.8261C17.9563 16.9239 17.3005 17 16.8415 17C16.3388 17 15.7377 16.9239 15.3661 16.8043C15.0164 16.6957 14.4699 16.4457 14.1421 16.2391C13.8142 16.0326 13.3224 15.6087 13.0492 15.3152C12.776 15.0109 12.3825 14.4239 12.1749 14.0109C11.9781 13.587 11.6612 12.8587 11.4863 12.3804C11.3115 11.9022 11.1257 11.4891 11.082 11.4565C11.0383 11.4239 10.8306 11.0326 10.623 10.587C10.4044 10.1413 10.0656 9.6087 9.85792 9.40217C9.65027 9.20652 9.20219 8.8913 8.86339 8.72826C8.46995 8.53261 7.96721 8.3913 7.55191 8.34783C7.13661 8.30435 6.60109 8.33696 6.20765 8.41304C5.78142 8.51087 5.3224 8.71739 4.9071 9C4.45902 9.31522 4.14208 9.6413 3.85792 10.0978C3.57377 10.5761 3.43169 10.9783 3.3224 11.6196C3.21311 12.3043 3.21311 12.5978 3.31148 12.9783C3.37705 13.25 3.55191 13.663 3.69399 13.9022C3.83607 14.1413 4.14208 14.5217 4.37158 14.7391C4.60109 14.9565 5.06011 15.2717 5.38798 15.4348C5.83607 15.6522 6.20765 15.75 6.80874 15.7826C7.36612 15.8152 7.82514 15.7717 8.2623 15.6522C8.60109 15.5543 8.98361 15.5 9.10383 15.5326C9.22404 15.5652 9.37705 15.6848 9.43169 15.8043C9.48634 15.9239 9.51913 16.1196 9.48634 16.2391C9.45355 16.3696 9.21312 16.5543 8.91803 16.6957C8.54645 16.8587 8.09836 16.9457 7.40984 16.9783C6.6776 17.0109 6.2623 16.9783 5.77049 16.837C5.40984 16.7391 4.87432 16.5109 4.56831 16.3478C4.27322 16.1739 3.80328 15.8261 3.54098 15.5652C3.27869 15.3043 2.91803 14.8804 2.74317 14.6087C2.56831 14.337 2.32787 13.8043 2.20765 13.413C2.08743 13.0217 2 12.3913 2 12C2 11.6087 2.08743 10.9783 2.20765 10.587C2.32787 10.1957 2.57923 9.65217 2.76503 9.36957C2.93989 9.07609 3.30055 8.6413 3.56284 8.40217C3.81421 8.15217 4.24044 7.82609 4.51366 7.67391C4.78689 7.51087 5.27869 7.30435 5.60656 7.19565C5.96721 7.08696 6.56831 7.01087 7.11475 7.01087Z" fill="#FFF1C0"/>
</svg>

<svg xmlns="http://www.w3.org/2000/svg" viewBox="0 0 24 24"><path d="M7.115 7.01a5.31 5.31 0 0 1 1.53.186 6.34 6.34 0 0 1 1.213.565c.328.206.82.63 1.093.924.273.304.623.793.765 1.087.142.304.448 1.054.688 1.685.23.63.492 1.217.569 1.304.087.087.295.456.48.815.175.359.492.815.69 1.022.207.195.666.522 1.026.706.601.305.744.326 1.694.326.81 0 1.148-.054 1.53-.228.274-.12.689-.37.93-.543a3.91 3.91 0 0 0 .797-.913c.24-.402.405-.87.514-1.511.131-.729.142-1.033.055-1.413a4.021 4.021 0 0 0-.383-.924 4.75 4.75 0 0 0-.678-.837 5.557 5.557 0 0 0-1.016-.707c-.535-.271-.721-.304-1.64-.304-.622 0-1.245.065-1.551.163-.481.152-.525.152-.743-.054-.12-.12-.23-.316-.23-.435 0-.12.088-.294.197-.402.11-.098.47-.25.798-.348.328-.098.972-.174 1.42-.174.448 0 1.093.076 1.421.174.328.098.853.315 1.148.478a5.83 5.83 0 0 1 1.027.783c.262.26.623.685.798.956.175.272.415.805.535 1.196.12.391.208 1.022.208 1.413s-.087 1.022-.208 1.413a5.8 5.8 0 0 1-.535 1.196 6.986 6.986 0 0 1-.798.956 5.817 5.817 0 0 1-1.027.783c-.295.163-.82.38-1.148.478-.328.098-.983.174-1.442.174-.503 0-1.104-.076-1.476-.196a6.19 6.19 0 0 1-1.224-.565 6.728 6.728 0 0 1-1.093-.924 7.163 7.163 0 0 1-.874-1.304 25.26 25.26 0 0 1-.689-1.63c-.175-.479-.36-.892-.404-.925-.044-.032-.251-.423-.459-.869-.219-.446-.557-.978-.765-1.185a4.788 4.788 0 0 0-.995-.674 4.11 4.11 0 0 0-1.311-.38 5.034 5.034 0 0 0-1.344.065 3.952 3.952 0 0 0-1.3.587 3.597 3.597 0 0 0-1.05 1.098c-.284.478-.426.88-.536 1.522-.109.684-.109.978-.01 1.358.065.272.24.685.382.924.142.24.448.62.678.837.23.217.688.533 1.016.696.448.217.82.315 1.42.348.558.032 1.017-.011 1.454-.13.34-.099.722-.153.842-.12.12.032.273.152.328.271.054.12.087.316.054.435-.032.13-.273.315-.568.457-.372.163-.82.25-1.508.282-.732.033-1.148 0-1.64-.141a6.947 6.947 0 0 1-1.202-.49 6.257 6.257 0 0 1-1.027-.782 6.99 6.99 0 0 1-.798-.956 5.798 5.798 0 0 1-.535-1.196A5.738 5.738 0 0 1 2 12c0-.391.087-1.022.208-1.413.12-.391.371-.935.557-1.217.175-.294.536-.729.798-.968a5.27 5.27 0 0 1 .95-.728c.274-.163.766-.37 1.094-.478.36-.109.961-.185 1.508-.185"/></svg>
